assets/img/common/list-item-check.svg

<svg fill="none" height="20" viewBox="0 0 24 20" width="24" xmlns="http://www.w3.org/2000/svg"><path d="m0 0h20v20h-20z" fill="#fff"/><g clip-rule="evenodd" fill-rule="evenodd"><path d="m19 1h-18v18h18zm-19-1v20h20v-20z" fill="#000"/><path d="m23.99 2.85858c.0781.54673-.3018 1.05326-.8486 1.13137-1.5114.21592-3.0374 1.01206-4.5191 2.16616-1.4754 1.14915-2.8451 2.60462-4.0402 4.04499-1.0973 1.3223-2.0271 2.6065-2.7504 3.6054-.0637.088-.1258.1737-.1862.2571-.365.5033-.6901.9471-.9433 1.2485-.119.1417-.2689.3094-.4302.4352-.0728.0567-.2294.171-.44698.2301-.26534.0721-.69337.0685-1.03213-.2703-.36576-.3658-.68618-.838-.96576-1.2501l-.024-.0354c-.29862-.4401-.58719-.8653-.93477-1.2678-.67474-.7813-1.55411-1.4559-3.00978-1.6638-.54674-.0782-.92663-.5847-.84853-1.1314.07811-.54675.58464-.92665 1.13137-.84855 2.04433.29205 3.33187 1.28435 4.24058 2.33655.42481.4918.76999 1.0008 1.05555 1.4218.01033.0152.02058.0303.03076.0453.04138.061.0811.1194.11935.1752.12869-.173.27454-.373.43874-.5994.0606-.0835.1232-.17.1877-.2592.7212-.9962 1.6874-2.3308 2.8288-3.70637 1.2424-1.49716 2.7164-3.07294 4.3504-4.34567 1.6277-1.26777 3.4767-2.28413 5.4653-2.56821.5467-.0781 1.0532.30179 1.1314.84853z" fill="#3e765e"/></g></svg>

<svg width="24" height="20" viewBox="0 0 24 20" fill="none" xmlns="http://www.w3.org/2000/svg">
  <path d="M0 0H20V20H0V0Z" fill="white" />
  <path fill-rule="evenodd" clip-rule="evenodd" d="M19 1H1V19H19V1ZM0 0V20H20V0H0Z" fill="black" />
  <path fill-rule="evenodd" clip-rule="evenodd"
    d="M23.99 2.85858C24.0681 3.40531 23.6882 3.91184 23.1414 3.98995C21.63 4.20587 20.104 5.00201 18.6223 6.15611C17.1469 7.30526 15.7772 8.76073 14.5821 10.2011C13.4848 11.5234 12.555 12.8076 11.8317 13.8065C11.768 13.8945 11.7059 13.9802 11.6455 14.0636C11.2805 14.5669 10.9554 15.0107 10.7022 15.3121C10.5832 15.4538 10.4333 15.6215 10.272 15.7473C10.1992 15.804 10.0426 15.9183 9.82502 15.9774C9.55968 16.0495 9.13165 16.0459 8.79289 15.7071C8.42713 15.3413 8.10671 14.8691 7.82713 14.457L7.80313 14.4216C7.50451 13.9815 7.21594 13.5563 6.86836 13.1538C6.19362 12.3725 5.31425 11.6979 3.85858 11.49C3.31184 11.4118 2.93195 10.9053 3.01005 10.3586C3.08816 9.81185 3.59469 9.43195 4.14142 9.51005C6.18575 9.8021 7.47329 10.7944 8.382 11.8466C8.80681 12.3384 9.15199 12.8474 9.43755 13.2684C9.44788 13.2836 9.45813 13.2987 9.46831 13.3137C9.50969 13.3747 9.54941 13.4331 9.58766 13.4889C9.71635 13.3159 9.8622 13.1159 10.0264 12.8895C10.087 12.806 10.1496 12.7195 10.2141 12.6303C10.9353 11.6341 11.9015 10.2995 13.0429 8.92393C14.2853 7.42677 15.7593 5.85099 17.3933 4.57826C19.021 3.31049 20.87 2.29413 22.8586 2.01005C23.4053 1.93195 23.9118 2.31184 23.99 2.85858Z"
    fill="#3E765E" />
</svg>
